packages/icons/src/svg/cluster.svg

<svg xmlns="http://www.w3.org/2000/svg" viewBox="0 0 16 16">
	<path d="M0 1v4h16V1zm2 3H1V2h1zm2 0H3V2h1zm2 0H5V2h1zm9 0h-2V2h2zM0 6v4h16V6zm2 3H1V7h1zm2 0H3V7h1zm2 0H5V7h1zm-6 2v4h16v-4zm2 3H1v-2h1zm2 0H3v-2h1zm2 0H5v-2h1z"/>
</svg>

<svg xmlns="http://www.w3.org/2000/svg" viewBox="0 0 16 16"><path d="M0,1V5H16V1ZM2,4H1V2H2ZM4,4H3V2H4ZM6,4H5V2H6Zm9,0H13V2h2ZM0,6v4H16V6ZM2,9H1V7H2ZM4,9H3V7H4ZM6,9H5V7H6ZM0,11v4H16V11Zm2,3H1V12H2Zm2,0H3V12H4Zm2,0H5V12H6Z"/></svg>
